assets/images/moving1.svg

<svg width="56" height="52" viewBox="0 0 56 52" fill="none" xmlns="http://www.w3.org/2000/svg">
<g clip-path="url(#clip0_67_303)">
<path d="M55.9961 26.0317V40.2651C55.9966 40.7943 55.8934 41.3185 55.6926 41.8075C55.4917 42.2966 55.1971 42.7409 54.8255 43.1152C54.4539 43.4894 54.0126 43.7861 53.527 43.9884C53.0414 44.1907 52.521 44.2945 51.9955 44.294H50.6275C50.4601 46.1272 49.6191 47.8315 48.2693 49.073C46.9196 50.3146 45.1582 51.004 43.3302 51.0062C41.501 51.0068 39.7377 50.3185 38.3867 49.0765C37.0357 47.8345 36.1947 46.1286 36.0289 44.294H29.2964C29.1281 46.1269 28.2869 47.8306 26.9373 49.072C25.5878 50.3134 23.8269 51.0031 21.9992 51.0062C20.17 51.0068 18.4066 50.3185 17.0556 49.0765C15.7046 47.8345 14.8637 46.1286 14.6979 44.294H10.6656C10.1401 44.2945 9.61952 44.1907 9.13391 43.9884C8.6483 43.7861 8.20715 43.4894 7.83556 43.1152C7.46397 42.7409 7.16923 42.2966 6.96837 41.8075C6.76751 41.3185 6.66445 40.7943 6.66497 40.2651V28.1824H1.33214C1.15686 28.1824 0.983353 28.1475 0.821464 28.0799C0.659575 28.0122 0.512503 27.913 0.388745 27.788C0.264987 27.663 0.167012 27.5146 0.100297 27.3514C0.0335825 27.1881 -0.000517298 27.0133 5.9312e-06 26.8367C5.9312e-06 26.6605 0.0344162 26.4861 0.101365 26.3233C0.168315 26.1605 0.266495 26.0126 0.390201 25.888C0.513907 25.7635 0.660708 25.6646 0.822338 25.5972C0.983967 25.5298 1.1572 25.4951 1.33214 25.4951H6.66497V22.8278H1.33214C1.15686 22.8278 0.983353 22.793 0.821464 22.7253C0.659575 22.6576 0.512503 22.5585 0.388745 22.4335C0.264987 22.3085 0.167012 22.1601 0.100297 21.9968C0.0335825 21.8336 -0.000517298 21.6587 5.9312e-06 21.4822C5.9312e-06 21.1264 0.140366 20.7851 0.390201 20.5335C0.640036 20.2819 0.978824 20.1406 1.33214 20.1406H6.66497V17.4573H1.33214C0.978459 17.4562 0.639631 17.314 0.38991 17.0618C0.140188 16.8095 4.36477e-06 16.4678 5.9312e-06 16.1116C5.9312e-06 15.7558 0.140366 15.4146 0.390201 15.163C0.640036 14.9114 0.978824 14.77 1.33214 14.77H6.66497V12.0827H1.33214C0.978824 12.0827 0.640036 11.9414 0.390201 11.6898C0.140366 11.4382 5.9312e-06 11.0969 5.9312e-06 10.7411C5.9312e-06 10.3853 0.140366 10.044 0.390201 9.79241C0.640036 9.54081 0.978824 9.39945 1.33214 9.39945H6.66497V4.02891C6.66445 3.49968 6.76751 2.97555 6.96837 2.48651C7.16923 1.99746 7.46397 1.55308 7.83556 1.17886C8.20715 0.804633 8.6483 0.507909 9.13391 0.305624C9.61952 0.103339 10.1401 -0.000524868 10.6656 1.99442e-06H35.9972C37.0582 1.99442e-06 38.0758 0.424487 38.826 1.18005C39.5763 1.93562 39.9977 2.96038 39.9977 4.02891V8.05783H46.2213C47.0102 8.05557 47.782 8.2897 48.4385 8.73042C49.0949 9.17115 49.6063 9.79856 49.9077 10.5328L55.6938 24.4979C55.8911 24.985 55.9937 25.5057 55.9961 26.0317Z" fill="white"/>
<path d="M38.6656 29.54H7.99718C7.64386 29.54 7.30507 29.3987 7.05524 29.1471C6.8054 28.8955 6.66504 28.5542 6.66504 28.1984V4.02891C6.66452 3.49968 6.76758 2.97555 6.96844 2.48651C7.1693 1.99746 7.46403 1.55308 7.83563 1.17886C8.20722 0.804633 8.64837 0.507909 9.13398 0.305624C9.61959 0.103339 10.1401 -0.000524868 10.6656 1.99442e-06H35.9972C36.5227 -0.000524868 37.0432 0.103339 37.5288 0.305624C38.0144 0.507909 38.4557 0.804633 38.8272 1.17886C39.1988 1.55308 39.4935 1.99746 39.6943 2.48651C39.8952 2.97555 39.9983 3.49968 39.9977 4.02891V28.1984C39.9977 28.3746 39.9633 28.549 39.8964 28.7118C39.8294 28.8746 39.7313 29.0225 39.6076 29.1471C39.4839 29.2717 39.337 29.3705 39.1754 29.4379C39.0138 29.5053 38.8405 29.54 38.6656 29.54ZM9.3334 26.8527H37.3294V4.02491C37.3294 3.66871 37.1892 3.32706 36.9395 3.07482C36.6898 2.82258 36.3509 2.68033 35.9972 2.67927H10.6656C10.3119 2.68033 9.97302 2.82258 9.7233 3.07482C9.47358 3.32706 9.33339 3.66871 9.3334 4.02491V26.8527ZM37.3692 44.31H27.9563C27.603 44.31 27.2641 44.1687 27.0143 43.9171C26.7645 43.6655 26.6241 43.3242 26.6241 42.9684C26.6241 42.6122 26.7643 42.2706 27.014 42.0183C27.2637 41.7661 27.6027 41.6238 27.9563 41.6228H37.3692C37.5447 41.6228 37.7184 41.6576 37.8805 41.7252C38.0427 41.7928 38.19 41.8919 38.314 42.0169C38.4381 42.1418 38.5365 42.2902 38.6037 42.4535C38.6708 42.6167 38.7053 42.7917 38.7053 42.9684C38.7053 43.1449 38.6708 43.3197 38.6036 43.4827C38.5364 43.6458 38.4379 43.7939 38.3137 43.9185C38.1896 44.0431 38.0423 44.1419 37.8803 44.2091C37.7182 44.2763 37.5445 44.3106 37.3692 44.31Z" fill="#022F45"/>
<path d="M51.9957 44.3102H49.2915C48.9378 44.3102 48.5986 44.169 48.3481 43.9175C48.0976 43.666 47.9563 43.3248 47.9553 42.9686C47.9563 42.612 48.0975 42.2704 48.3478 42.0182C48.5982 41.7661 48.9374 41.624 49.2915 41.6229H51.9957C52.3494 41.6229 52.6886 41.4817 52.9391 41.2302C53.1895 40.9787 53.3307 40.6375 53.3318 40.2813V26.0319C53.3326 25.8548 53.2989 25.6793 53.2324 25.5153L47.4464 11.5543C47.345 11.3114 47.1754 11.1037 46.9586 10.9564C46.7417 10.8092 46.487 10.7289 46.2255 10.7253H39.9979V28.1826C39.9979 28.3587 39.9635 28.5332 39.8965 28.696C39.8296 28.8587 39.7315 29.0067 39.6078 29.1312C39.4841 29.2558 39.3372 29.3547 39.1756 29.4221C39.0139 29.4895 38.8407 29.5242 38.6657 29.5242H9.32559V40.2653C9.32559 40.4415 9.36 40.6159 9.42695 40.7787C9.4939 40.9415 9.59208 41.0894 9.71578 41.214C9.83949 41.3386 9.98639 41.4374 10.148 41.5048C10.3096 41.5722 10.4829 41.6069 10.6578 41.6069H16.0304C16.384 41.608 16.7229 41.7502 16.9726 42.0025C17.2223 42.2547 17.3625 42.5964 17.3625 42.9526C17.3625 43.3084 17.2221 43.6497 16.9723 43.9013C16.7225 44.1529 16.3837 44.2942 16.0304 44.2942H10.6578C10.1323 44.2947 9.61178 44.1909 9.12617 43.9886C8.64056 43.7863 8.19941 43.4896 7.82782 43.1153C7.45623 42.7411 7.16149 42.2968 6.96063 41.8077C6.75977 41.3187 6.65671 40.7945 6.65723 40.2653V28.1826C6.65671 28.006 6.69081 27.8311 6.75752 27.6679C6.82424 27.5047 6.92221 27.3563 7.04597 27.2313C7.16973 27.1063 7.3168 27.0071 7.47869 26.9394C7.64058 26.8717 7.81409 26.8369 7.98937 26.8369H37.3216V9.38363C37.3216 9.2071 37.3562 9.03231 37.4234 8.86928C37.4906 8.70624 37.5891 8.55818 37.7132 8.43354C37.8374 8.30891 37.9846 8.21016 38.1467 8.14298C38.3088 8.07579 38.4825 8.04147 38.6578 8.042H46.2135C47.0018 8.04054 47.7727 8.27504 48.4284 8.71572C49.084 9.1564 49.5949 9.78337 49.896 10.517L55.6821 24.482C55.8814 24.9741 55.9841 25.5005 55.9843 26.0319V40.2653C55.9869 40.7948 55.8857 41.3197 55.6866 41.8099C55.4874 42.3 55.1941 42.7457 54.8236 43.1214C54.453 43.4972 54.0125 43.7957 53.5272 43.9996C53.042 44.2036 52.5215 44.3092 51.9957 44.3102Z" fill="#022F45"/>
<path d="M21.9992 51.0224C20.0568 51.0235 18.1933 50.248 16.8183 48.8662C15.4433 47.4845 14.6692 45.6096 14.6661 43.6534C14.6661 41.6948 15.4387 39.8164 16.8139 38.4314C18.1891 37.0465 20.0543 36.2684 21.9992 36.2684C23.9437 36.2695 25.8082 37.0479 27.1832 38.4326C28.5582 39.8174 29.3312 41.6951 29.3322 43.6534C29.3259 45.6086 28.5508 47.4817 27.1765 48.8628C25.8022 50.2438 23.9406 51.0203 21.9992 51.0224ZM21.9992 38.9397C21.3851 38.9397 20.777 39.0617 20.2098 39.2987C19.6426 39.5358 19.1273 39.8832 18.6936 40.321C18.26 40.7589 17.9164 41.2787 17.6825 41.8505C17.4486 42.4223 17.3289 43.035 17.3304 43.6534C17.3304 44.9004 17.8224 46.0963 18.6979 46.9781C19.5735 47.8598 20.761 48.3552 21.9992 48.3552C23.2367 48.3541 24.4231 47.8583 25.2978 46.9767C26.1725 46.095 26.6639 44.8997 26.6639 43.6534C26.6659 43.0352 26.5468 42.4226 26.3133 41.8508C26.0798 41.279 25.7365 40.7592 25.3032 40.3213C24.8698 39.8834 24.3549 39.5359 23.7879 39.2988C23.2209 39.0617 22.6131 38.9397 21.9992 38.9397ZM43.3302 51.0224C41.3881 51.0224 39.5253 50.2466 38.1506 48.8651C36.7758 47.4836 36.0014 45.6093 35.9972 43.6534C35.9982 41.6951 36.7711 39.8174 38.1461 38.4326C39.5211 37.0479 41.3857 36.2695 43.3302 36.2684C44.2947 36.2663 45.2502 36.4558 46.142 36.8259C47.0337 37.196 47.8442 37.7396 48.5271 38.4255C49.21 39.1115 49.752 39.9263 50.122 40.8233C50.4919 41.7204 50.6826 42.6821 50.6831 43.6534C50.6768 45.6121 49.899 47.4882 48.5204 48.8698C47.1418 50.2514 45.2751 51.0256 43.3302 51.0224ZM43.3302 38.9397C42.7163 38.9397 42.1084 39.0617 41.5415 39.2988C40.9745 39.5359 40.4595 39.8834 40.0261 40.3213C39.5928 40.7592 39.2495 41.279 39.016 41.8508C38.7825 42.4226 38.6634 43.0352 38.6655 43.6534C38.6655 44.8997 39.1569 46.095 40.0316 46.9767C40.9062 47.8583 42.0927 48.3541 43.3302 48.3552C44.5684 48.3552 45.7559 47.8598 46.6315 46.9781C47.507 46.0963 47.9988 44.9004 47.9988 43.6534C48.0004 43.035 47.8808 42.4223 47.6469 41.8505C47.413 41.2787 47.0693 40.7589 46.6356 40.321C46.202 39.8832 45.6867 39.5358 45.1195 39.2987C44.5523 39.0617 43.9443 38.9397 43.3302 38.9397ZM27.996 16.1119C27.7904 16.1121 27.5875 16.0641 27.4035 15.9717L22.6633 13.5688L17.9269 15.9717C17.6102 16.1293 17.2446 16.1546 16.9095 16.0421C16.5743 15.9296 16.2969 15.6884 16.1374 15.371C16.0456 15.1814 15.9981 14.9731 15.9983 14.7622V1.33384C15.9983 0.97802 16.1387 0.636759 16.3885 0.385153C16.6383 0.133548 16.9771 -0.00780652 17.3304 -0.00780652H28.0159C28.1912 -0.00833346 28.3649 0.0259835 28.527 0.0931711C28.6891 0.160359 28.8363 0.2591 28.9605 0.383735C29.0846 0.50837 29.1831 0.65646 29.2503 0.819496C29.3175 0.982533 29.3521 1.15732 29.3521 1.33384V14.7622C29.3532 14.9394 29.3193 15.1151 29.2526 15.279C29.1859 15.443 29.0875 15.592 28.9633 15.7175C28.839 15.843 28.6914 15.9425 28.5288 16.0101C28.3662 16.0778 28.1918 16.1124 28.0159 16.1119H27.996ZM22.6633 10.7413C22.8702 10.741 23.0743 10.789 23.2598 10.8815L26.6639 12.5956V2.68349H18.6627V12.5956L22.0668 10.8815C22.2523 10.7894 22.4564 10.7415 22.6633 10.7413ZM7.99711 12.0829H1.33214C0.978824 12.0829 0.640036 11.9416 0.390201 11.69C0.140366 11.4384 5.9312e-06 11.0971 5.9312e-06 10.7413C5.9312e-06 10.3855 0.140366 10.0442 0.390201 9.79262C0.640036 9.54102 0.978824 9.39966 1.33214 9.39966H7.99711C8.3508 9.39966 8.69014 9.54089 8.94061 9.79238C9.19108 10.0439 9.33227 10.3851 9.33333 10.7413C9.33227 11.0975 9.19108 11.4387 8.94061 11.6902C8.69014 11.9417 8.3508 12.0829 7.99711 12.0829ZM7.99711 17.4535H1.33214C0.978824 17.4535 0.640036 17.3121 0.390201 17.0605C0.140366 16.8089 5.9312e-06 16.4677 5.9312e-06 16.1119C5.9312e-06 15.756 0.140366 15.4148 0.390201 15.1632C0.640036 14.9116 0.978824 14.7702 1.33214 14.7702H7.99711C8.3508 14.7702 8.69014 14.9114 8.94061 15.1629C9.19108 15.4144 9.33227 15.7557 9.33333 16.1119C9.33227 16.468 9.19108 16.8093 8.94061 17.0608C8.69014 17.3123 8.3508 17.4535 7.99711 17.4535ZM7.99711 22.828H1.33214C0.978459 22.827 0.639631 22.6847 0.38991 22.4325C0.140188 22.1803 4.36477e-06 21.8386 5.9312e-06 21.4824C5.9312e-06 21.1266 0.140366 20.7853 0.390201 20.5337C0.640036 20.2821 0.978824 20.1408 1.33214 20.1408H7.99711C8.3508 20.1408 8.69014 20.282 8.94061 20.5335C9.19108 20.785 9.33227 21.1262 9.33333 21.4824C9.33228 21.839 9.19116 22.1806 8.9408 22.4327C8.69045 22.6849 8.35116 22.827 7.99711 22.828ZM7.99711 28.1986H1.33214C1.15686 28.1986 0.983353 28.1638 0.821464 28.0961C0.659575 28.0284 0.512503 27.9292 0.388745 27.8042C0.264987 27.6792 0.167012 27.5309 0.100297 27.3676C0.0335825 27.2044 -0.000517298 27.0295 5.9312e-06 26.853C5.9312e-06 26.6768 0.0344162 26.5023 0.101365 26.3395C0.168315 26.1768 0.266495 26.0289 0.390201 25.9043C0.513907 25.7797 0.660708 25.6809 0.822338 25.6135C0.983967 25.546 1.1572 25.5113 1.33214 25.5113H7.99711C8.3508 25.5113 8.69014 25.6525 8.94061 25.904C9.19108 26.1555 9.33227 26.4968 9.33333 26.853C9.33333 27.2098 9.19255 27.5521 8.94197 27.8045C8.69139 28.0568 8.35149 28.1986 7.99711 28.1986Z" fill="#022F45"/>
</g>
<defs>
<clipPath id="clip0_67_303">
<rect width="56" height="51.0222" fill="white"/>
</clipPath>
</defs>
</svg>

<svg width="56" height="52" fill="none" xmlns="http://www.w3.org/2000/svg"><g clip-path="url(#a)"><path d="M55.996 26.032v14.233a4.051 4.051 0 0 1-1.17 2.85 3.996 3.996 0 0 1-2.83 1.179h-1.369a7.408 7.408 0 0 1-2.358 4.779 7.308 7.308 0 0 1-4.939 1.933 7.3 7.3 0 0 1-4.943-1.93 7.4 7.4 0 0 1-2.358-4.782h-6.733a7.412 7.412 0 0 1-2.359 4.778A7.312 7.312 0 0 1 22 51.006a7.3 7.3 0 0 1-4.943-1.93 7.4 7.4 0 0 1-2.358-4.782h-4.032a3.973 3.973 0 0 1-2.83-1.179 4.028 4.028 0 0 1-1.171-2.85V28.182H1.332a1.325 1.325 0 0 1-1.232-.83 1.35 1.35 0 0 1 .722-1.755c.162-.067.335-.102.51-.102h5.333v-2.667H1.332a1.323 1.323 0 0 1-.943-.395 1.342 1.342 0 0 1-.389-.95c0-.357.14-.698.39-.95.25-.251.589-.392.942-.392h5.333v-2.684H1.332a1.332 1.332 0 0 1-.942-.395 1.35 1.35 0 0 1 0-1.899c.25-.252.589-.393.942-.393h5.333v-2.687H1.332c-.353 0-.692-.142-.942-.393a1.347 1.347 0 0 1 0-1.898c.25-.251.589-.393.942-.393h5.333V4.03a4.05 4.05 0 0 1 1.17-2.85A3.994 3.994 0 0 1 10.666 0h25.332c1.061 0 2.079.424 2.829 1.18a4.043 4.043 0 0 1 1.172 2.849v4.029h6.223a3.957 3.957 0 0 1 2.218.672 4 4 0 0 1 1.469 1.803l5.786 13.965c.197.487.3 1.008.302 1.534Z" fill="#fff"/><path d="M38.666 29.54H7.997c-.353 0-.692-.141-.942-.393a1.347 1.347 0 0 1-.39-.949V4.028a4.05 4.05 0 0 1 1.17-2.85A3.994 3.994 0 0 1 10.666 0h25.332a3.972 3.972 0 0 1 2.83 1.179 4.026 4.026 0 0 1 1.17 2.85v24.17a1.35 1.35 0 0 1-.39.948 1.331 1.331 0 0 1-.941.393ZM9.333 26.853H37.33V4.025c0-.356-.14-.698-.39-.95a1.332 1.332 0 0 0-.942-.396H10.666a1.332 1.332 0 0 0-.943.396 1.35 1.35 0 0 0-.39.95v22.828ZM37.37 44.31h-9.413c-.353 0-.692-.141-.942-.393a1.347 1.347 0 0 1 .942-2.294h9.413a1.328 1.328 0 0 1 .945.394 1.346 1.346 0 0 1 .29 1.466 1.34 1.34 0 0 1-.724.726 1.323 1.323 0 0 1-.51.101Z" fill="#022F45"/><path d="M51.996 44.31H49.29c-.353 0-.692-.141-.943-.393a1.35 1.35 0 0 1-.393-.948c.001-.357.142-.699.393-.95.25-.253.59-.395.944-.396h2.704c.353 0 .693-.141.943-.393a1.35 1.35 0 0 0 .393-.949v-14.25c0-.176-.033-.352-.1-.516l-5.786-13.96a1.338 1.338 0 0 0-1.22-.829h-6.228v17.457a1.35 1.35 0 0 1-.39.948 1.331 1.331 0 0 1-.942.393H9.326v10.741a1.35 1.35 0 0 0 .39.949 1.331 1.331 0 0 0 .942.393h5.372c.354.001.693.143.943.395a1.35 1.35 0 0 1 0 1.9c-.25.25-.59.392-.943.392h-5.372a3.973 3.973 0 0 1-2.83-1.179 4.026 4.026 0 0 1-1.17-2.85V28.183a1.35 1.35 0 0 1 .388-.952 1.332 1.332 0 0 1 .943-.394h29.333V9.384a1.35 1.35 0 0 1 .391-.95 1.332 1.332 0 0 1 .945-.392h7.556a3.957 3.957 0 0 1 2.214.674 4 4 0 0 1 1.468 1.801l5.786 13.965c.2.492.302 1.018.302 1.55v14.233a4.052 4.052 0 0 1-1.16 2.856 3.994 3.994 0 0 1-2.828 1.19Z" fill="#022F45"/><path d="M22 51.022a7.303 7.303 0 0 1-5.182-2.156 7.407 7.407 0 0 1-.004-10.435 7.307 7.307 0 0 1 5.185-2.163 7.311 7.311 0 0 1 5.184 2.165 7.415 7.415 0 0 1 2.15 5.22 7.42 7.42 0 0 1-2.156 5.21 7.315 7.315 0 0 1-5.178 2.16Zm0-12.082a4.64 4.64 0 0 0-3.306 1.381 4.706 4.706 0 0 0-1.364 3.332 4.72 4.72 0 0 0 1.368 3.325 4.653 4.653 0 0 0 3.301 1.377 4.652 4.652 0 0 0 3.299-1.378 4.719 4.719 0 0 0 1.366-3.324 4.728 4.728 0 0 0-1.36-3.332 4.664 4.664 0 0 0-3.305-1.381Zm21.33 12.082a7.307 7.307 0 0 1-5.18-2.157 7.411 7.411 0 0 1-2.153-5.212 7.415 7.415 0 0 1 2.15-5.22 7.311 7.311 0 0 1 10.38-.008 7.396 7.396 0 0 1 1.595 2.398c.37.897.56 1.86.561 2.83a7.42 7.42 0 0 1-2.163 5.217 7.315 7.315 0 0 1-5.19 2.152Zm0-12.082a4.635 4.635 0 0 0-3.304 1.381 4.701 4.701 0 0 0-1.36 3.332c0 1.247.49 2.442 1.366 3.324a4.652 4.652 0 0 0 3.298 1.378 4.653 4.653 0 0 0 3.302-1.377 4.719 4.719 0 0 0 1.367-3.325 4.73 4.73 0 0 0-1.363-3.332 4.668 4.668 0 0 0-3.306-1.381ZM27.996 16.112c-.206 0-.409-.048-.592-.14l-4.74-2.403-4.737 2.403a1.331 1.331 0 0 1-1.017.07 1.343 1.343 0 0 1-.773-.671 1.394 1.394 0 0 1-.139-.609V1.334c0-.356.14-.697.39-.949.25-.251.59-.393.942-.393h10.686a1.324 1.324 0 0 1 .945.392 1.343 1.343 0 0 1 .391.95v13.428a1.35 1.35 0 0 1-.389.955 1.33 1.33 0 0 1-.947.395h-.02Zm-5.333-5.37c.207-.001.411.047.597.14l3.404 1.714V2.683h-8.001v9.913l3.404-1.714c.185-.093.39-.14.596-.14Zm-14.666 1.34H1.332c-.353 0-.692-.14-.942-.392a1.347 1.347 0 0 1 0-1.897C.64 9.54.98 9.4 1.332 9.4h6.665c.354 0 .693.14.944.392.25.252.391.593.392.95a1.35 1.35 0 0 1-.392.948c-.25.252-.59.393-.944.393Zm0 5.371H1.332c-.353 0-.692-.14-.942-.392a1.346 1.346 0 0 1 0-1.898c.25-.251.589-.393.942-.393h6.665c.354 0 .693.141.944.393.25.251.391.593.392.949a1.35 1.35 0 0 1-.392.949c-.25.251-.59.392-.944.392Zm0 5.375H1.332a1.331 1.331 0 0 1-.942-.395 1.35 1.35 0 0 1 0-1.9c.25-.25.589-.392.942-.392h6.665c.354 0 .693.141.944.393.25.251.391.592.392.948a1.354 1.354 0 0 1-.392.95c-.25.253-.59.395-.944.396Zm0 5.37H1.332a1.323 1.323 0 0 1-.943-.394A1.341 1.341 0 0 1 0 26.853a1.35 1.35 0 0 1 .39-.949 1.33 1.33 0 0 1 .942-.393h6.665c.354 0 .693.142.944.393a1.35 1.35 0 0 1 .001 1.9c-.25.253-.59.395-.945.395Z" fill="#022F45"/></g><defs><clipPath id="a"><path fill="#fff" d="M0 0h56v51.022H0z"/></clipPath></defs></svg>
